X: 138
T:Cradle Song
M:C
L:1/8
C:JS Skinner
R:Strathspey
K:A
E2|"A"Ac BA e2 "D"f2| "A"e4 c2 z2| Ac BA e2 c2|"E"{c}B6 E2|"A"Ac BA e2f2
|!
e4-c2 A2|"D"FE AB {AB}"A"c2 "E"B2|"A"A6 z2||"D"fdAd f2 a2|"A"e4-c2 z2|Ac
 BA e2 c2|!
"E7"B6 E2|"A"AcBA efga|"A"e4-c2 A2|"D"FE AB {AB}"A"c2 "E"B2|"A" A6||
% <A name="D1X139">
